dist/svg/u1FA73.svg

<?xml version="1.0" encoding="UTF-8"?><svg id="a" xmlns="http://www.w3.org/2000/svg" viewBox="0 0 40 40"><g><path d="M36.497,34.105l-2.447-28.34c-.034-.392-.362-.692-.755-.692H6.705c-.393,0-.721,.301-.755,.692l-2.447,28.34c-.038,.443,.311,.823,.755,.823h13.361c.561,0,1.031-.424,1.088-.982l.829-8.111c.057-.559,.872-.559,.929,0l.829,8.111c.057,.558,.527,.982,1.088,.982h13.361c.444,0,.793-.38,.755-.823Z" fill="#ffad00"/><path d="M6.705,5.072h26.59c.393,0,.721,.301,.755,.692l.412,4.766H5.539l.412-4.766c.034-.392,.362-.692,.755-.692Z" fill="#ec6700"/><path d="M15.416,16.89c-.157,0-.317-.035-.467-.109-.523-.258-.738-.892-.48-1.416l3.65-7.395c.258-.524,.892-.737,1.416-.48,.523,.258,.738,.892,.48,1.416l-3.65,7.395c-.184,.373-.559,.589-.948,.589Z" fill="#ec6700"/><path d="M24.584,16.89c-.389,0-.764-.216-.948-.589l-3.65-7.395c-.258-.524-.043-1.157,.48-1.416,.523-.258,1.157-.044,1.416,.48l3.65,7.395c.258,.524,.043,1.157-.48,1.416-.151,.074-.31,.109-.467,.109Z" fill="#ec6700"/></g><rect width="40" height="40" fill="none"/></svg>

<svg id="Layer_1" data-name="Layer 1" xmlns="http://www.w3.org/2000/svg" viewBox="0 0 40 40"><defs><style>.cls-1{fill:#ffad00;}.cls-2{fill:#ec6700;}.cls-3{fill:none;}</style></defs><path class="cls-1" d="M36.5,34.1,34.05,5.765a.758.758,0,0,0-.755-.693H6.705a.758.758,0,0,0-.755.693L3.5,34.1a.758.758,0,0,0,.755.823h13.36a1.094,1.094,0,0,0,1.088-.983l.829-8.11a.467.467,0,0,1,.93,0l.829,8.11a1.094,1.094,0,0,0,1.088.983h13.36A.758.758,0,0,0,36.5,34.1Z"/><path class="cls-2" d="M6.705,5.072H33.3a.758.758,0,0,1,.755.693l.411,4.766H5.539L5.95,5.765A.758.758,0,0,1,6.705,5.072Z"/><path class="cls-2" d="M15.416,16.89a1.057,1.057,0,0,1-.947-1.525L18.12,7.97a1.057,1.057,0,1,1,1.895.936L16.364,16.3A1.055,1.055,0,0,1,15.416,16.89Z"/><path class="cls-2" d="M24.584,16.89a1.055,1.055,0,0,1-.948-.589L19.985,8.906A1.057,1.057,0,1,1,21.88,7.97l3.651,7.4a1.057,1.057,0,0,1-.947,1.525Z"/><rect class="cls-3" width="40" height="40"/></svg>
